web/packages/design/src/ResourceIcon/assets/instruqt-dark.svg

<svg width="72" height="72" viewBox="0 0 72 72" fill="none" xmlns="http://www.w3.org/2000/svg">
<g clip-path="url(#clip0_16897_17221)">
<path d="M40.3818 9.59131C40.3268 9.64624 40.272 9.72866 40.217 9.78359C39.6675 10.3055 39.0083 10.7175 38.2941 11.0197C37.5524 11.3219 36.7832 11.4592 35.9867 11.4592C35.1901 11.4592 34.3935 11.3219 33.6519 11.0197C32.8827 10.7175 32.1958 10.2231 31.6191 9.64624V14.2062H40.3818V9.59131Z" fill="#BE78FF"/>
<path d="M33.6247 11.0196C34.3663 11.3218 35.1629 11.4591 35.9597 11.4591C36.7563 11.4591 37.5253 11.3218 38.2671 11.0196C38.9813 10.7175 39.613 10.3054 40.1899 9.7835C40.2448 9.72857 40.2998 9.64615 40.3546 9.59122C40.8217 9.09676 41.1787 8.54739 41.4534 7.94306C41.783 7.22886 41.9479 6.48719 41.9479 5.71805C41.9479 4.94889 41.783 4.20722 41.4534 3.5205C41.1514 2.83376 40.7118 2.20197 40.1899 1.68004C39.6405 1.15813 39.0087 0.74609 38.2945 0.471396C37.5802 0.141764 36.7836 -0.0230515 35.9871 0.00441813C34.3939 0.0318859 32.8831 0.636212 31.7567 1.70751C31.2074 2.22944 30.7954 2.86123 30.4931 3.54797C30.1911 4.23469 30.0262 5.00384 30.0538 5.74552C30.0538 6.51465 30.1911 7.28379 30.4931 7.97053C30.7678 8.60232 31.1524 9.15171 31.6194 9.64615C32.1689 10.223 32.8555 10.69 33.6247 11.0196Z" fill="white"/>
<path d="M30.1346 28.7923C29.5303 28.1881 28.7612 27.7761 27.9096 27.6112C27.0581 27.4464 26.179 27.5288 25.3824 27.8584C24.5858 28.1881 23.8991 28.7374 23.4321 29.4516C22.9651 30.1658 22.6904 31.0174 22.6904 31.8689C22.6904 33.0227 23.1574 34.1214 23.954 34.9455C24.7781 35.7695 25.8769 36.2091 27.0306 36.2091C27.8822 36.2091 28.7338 35.9618 29.448 35.4674C30.162 35.0005 30.7115 34.3137 31.0412 33.5171C31.3708 32.7205 31.4531 31.8415 31.2884 30.99C31.1509 30.1658 30.7389 29.3966 30.1346 28.7923Z" fill="white"/>
<path d="M48.9505 33.5445C49.2801 32.7479 49.3625 31.8689 49.1977 31.0174C49.0328 30.1658 48.6208 29.3966 48.0166 28.7923C47.4123 28.1881 46.6431 27.7761 45.7915 27.6112C44.94 27.4464 44.061 27.5288 43.2643 27.8584C42.4677 28.1881 41.781 28.7374 41.3141 29.4516C40.8471 30.1658 40.5723 31.0174 40.5723 31.8689C40.5723 33.0227 41.0394 34.1214 41.836 34.9455C42.66 35.7695 43.7588 36.2091 44.9126 36.2091C45.7641 36.2091 46.6157 35.9618 47.3297 35.4674C48.0715 35.0279 48.6208 34.3412 48.9505 33.5445Z" fill="white"/>
<path d="M20.7974 53.1299H11.7051V61.7828H20.7974V53.1575V53.1299Z" fill="#FF50A4"/>
<path d="M62.6037 31.8688C62.6037 22.1173 54.6924 14.2061 44.9409 14.2061H40.3809H31.6183H27.0583C17.3067 14.2061 9.39551 22.1173 9.39551 31.8688C9.39551 41.6205 17.3067 49.5316 27.0308 49.5316H27.1132C26.7836 50.1634 26.3441 50.7403 25.7947 51.2347C24.4762 52.4434 22.6632 53.1301 20.7953 53.1577V61.8103C24.7783 61.8103 28.624 60.4644 31.6183 58.0747V62.8542H40.3259V58.0471C43.3202 60.437 47.1659 61.7829 51.1489 61.7829V53.1301C49.281 53.1301 47.468 52.4434 46.1495 51.2073C45.6002 50.7128 45.1606 50.136 44.831 49.5042H44.9133C54.665 49.5316 62.6037 41.6205 62.6037 31.8688ZM27.0308 40.8239C22.0863 40.8239 18.0758 36.8134 18.0758 31.8688C18.0758 26.9244 22.0863 22.9139 27.0308 22.9139H44.9133C49.8579 22.9139 53.8684 26.9244 53.8684 31.8688C53.8684 36.8134 49.8579 40.8239 44.9133 40.8239H27.0308Z" fill="white"/>
<path d="M51.1758 53.1575V61.7828H60.268V53.1299H51.1758V53.1575Z" fill="#0598FF"/>
<path d="M31.6191 66.9752V72.0019H40.3544V66.9752V62.8271H31.6191V66.9752Z" fill="#FF8F28"/>
</g>
<defs>
<clipPath id="clip0_16897_17221">
<rect width="72" height="72.0003" fill="white" transform="translate(0 0.00146484)"/>
</clipPath>
</defs>
</svg>

<svg xmlns="http://www.w3.org/2000/svg" width="72" height="72" fill="none" viewBox="0 0 72 72"><g clip-path="url(#clip0_16897_17221)"><path fill="#be78ff" d="M40.382 9.591c-.055.055-.11.138-.165.193a6.4 6.4 0 0 1-1.923 1.236c-.742.302-1.51.44-2.307.44a6.2 6.2 0 0 1-2.335-.44c-.77-.303-1.456-.797-2.033-1.374v4.56h8.763z"/><path fill="#fff" d="M33.625 11.02c.741.302 1.538.44 2.335.44s1.565-.138 2.307-.44a6.8 6.8 0 0 0 1.923-1.236c.055-.055.11-.138.165-.193a6 6 0 0 0 1.098-1.648q.495-1.071.495-2.225c0-.77-.165-1.51-.495-2.197A6.1 6.1 0 0 0 40.19 1.68 5.7 5.7 0 0 0 38.295.471a5.1 5.1 0 0 0-2.308-.467c-1.593.028-3.104.632-4.23 1.704a5.7 5.7 0 0 0-1.264 1.84 5.1 5.1 0 0 0-.44 2.198c0 .769.138 1.538.44 2.225.275.631.66 1.18 1.126 1.675a6.1 6.1 0 0 0 2.006 1.374m-3.49 17.772a4.3 4.3 0 0 0-2.225-1.18 4.4 4.4 0 0 0-2.528.246 4.27 4.27 0 0 0-1.95 1.594 4.47 4.47 0 0 0-.742 2.417 4.44 4.44 0 0 0 1.264 3.077 4.32 4.32 0 0 0 3.077 1.263c.851 0 1.703-.247 2.417-.742a4.27 4.27 0 0 0 1.593-1.95 4.4 4.4 0 0 0 .247-2.527 4.1 4.1 0 0 0-1.153-2.198m18.815 4.753a4.4 4.4 0 0 0 .248-2.528 4.29 4.29 0 0 0-3.407-3.406 4.4 4.4 0 0 0-2.527.247 4.27 4.27 0 0 0-1.95 1.594 4.47 4.47 0 0 0-.742 2.417 4.44 4.44 0 0 0 1.264 3.077 4.32 4.32 0 0 0 3.077 1.263 4.25 4.25 0 0 0 2.417-.742c.742-.44 1.29-1.126 1.62-1.922"/><path fill="#ff50a4" d="M20.797 53.13h-9.092v8.653h9.092z"/><path fill="#fff" d="M62.604 31.869c0-9.752-7.912-17.663-17.663-17.663H27.058c-9.751 0-17.662 7.911-17.662 17.663s7.91 17.663 17.635 17.663h.082a6 6 0 0 1-1.318 1.703c-1.319 1.208-3.132 1.895-5 1.923v8.652c3.983 0 7.829-1.346 10.823-3.735v4.78h8.708v-4.808c2.994 2.39 6.84 3.736 10.823 3.736V53.13c-1.868 0-3.681-.687-5-1.923a6 6 0 0 1-1.318-1.703h.082c9.752.028 17.69-7.883 17.69-17.635M27.03 40.824a8.957 8.957 0 0 1-8.955-8.955 8.957 8.957 0 0 1 8.955-8.955h17.882a8.957 8.957 0 0 1 8.955 8.955 8.957 8.957 0 0 1-8.955 8.955z"/><path fill="#0598ff" d="M51.176 53.158v8.625h9.092V53.13h-9.092z"/><path fill="#ff8f28" d="M31.62 66.975v5.027h8.734v-9.175H31.62z"/></g><defs><clipPath id="clip0_16897_17221"><path fill="#fff" d="M0 .001h72v72H0z"/></clipPath></defs></svg>
